!!!COM: Claude Goudimel
!!!OMD: Psalm 25: A toy, mon Dieu, mon coeur
**kern	**kern	**kern	**kern
*part4	*part3	*part2	*part1
*staff4	*staff3	*staff2	*staff1
*I"bassus	*I"tenor	*I"contra	*I"superius
*clefF4	*clefC4	*clefC3	*clefC1
*k[b-]	*k[b-]	*k[b-]	*k[b-]
!!LO:TX:omd:t=
*M2/2	*M2/2	*M2/2	*M2/2
*met(c|)	*met(c|)	*met(c|)	*met(c|)
=1	=1	=1	=1
1FF	1F	1A	1c
=2	=2	=2	=2
2AA	2E	2A	2c
2BB-	2D	2F	2B-
=3	=3	=3	=3
2FF	2C	2F	2A
[2D	[2F	[2A	[2d
=4	=4	=4	=4
2D]	2F]	2A]	2d]
2C	2G	2c	2e
=5	=5	=5	=5
1F	1A	1c	1f
=6	=6	=6	=6
1BB-	1F	1B-	1d
=7	=7	=7	=7
1F	1A	1c	1f
=8	=8	=8	=8
1F	1A	1c	1f
=9	=9	=9	=9
2BB-	2B-	2d	2f
[2F	2A	2c	2f
=10	=10	=10	=10
2F]	1F	1A	2c
2D	.	.	[2f
=11	=11	=11	=11
1C	1G	1c	2f]
.	.	.	2e
=12	=12	=12	=12
1FF	1F	1c	1f
=13	=13	=13	=13
1r	1r	1r	1r
=14	=14	=14	=14
1FF	1F	1A	1c
=15	=15	=15	=15
2AA	2E	2A	2c
2BB-	2D	2F	2B-
=16	=16	=16	=16
2FF	2C	2F	2A
[2D	[2F	[2A	[2d
=17	=17	=17	=17
2D]	2F]	2A]	2d]
2C	2G	2c	2e
=18	=18	=18	=18
1F	1A	1c	1f
=19	=19	=19	=19
1BB-	1F	1B-	1d
=20	=20	=20	=20
1r	1r	1r	1r
=21	=21	=21	=21
1F	1A	1c	1f
=22	=22	=22	=22
1F	1A	1c	1f
=23	=23	=23	=23
2BB-	2B-	2d	2f
[2F	2A	2c	2f
=24	=24	=24	=24
2F]	1F	1A	2c
2D	.	.	[2f
=25	=25	=25	=25
1C	1G	1c	2f]
.	.	.	2e
=26	=26	=26	=26
1FF	1F	1c	1f
=27	=27	=27	=27
1r	1r	1r	1r
=28	=28	=28	=28
1F	1F	1c	1f
=29	=29	=29	=29
1C	1G	1c	1e
=30	=30	=30	=30
2F	2A	2c	2f
2BB-	2F	2B-	2d
=31	=31	=31	=31
2BB-	2B-	2d	2f
2BB-	2B-	2d	2f
=32	=32	=32	=32
1F	1A	1c	1f
=33	=33	=33	=33
1r	1r	1r	1r
=34	=34	=34	=34
1FF	1F	1A	1c
=35	=35	=35	=35
2BB-	2D	2F	2B-
[2AA	[2E	[2A	[2c
=36	=36	=36	=36
2AA]	2E]	2A]	2c]
2AA	2C	2c	2A
=37	=37	=37	=37
2GG	2D	2B-	2B-
2FF	2F	2A	2c
=38	=38	=38	=38
1C	1E	1G	1c
=39	=39	=39	=39
1FF	1F	1A	1c
=40	=40	=40	=40
1r	1r	1r	1r
=41	=41	=41	=41
1F	1A	1c	1f
=42	=42	=42	=42
1F	1A	1c	1f
=43	=43	=43	=43
2BB-	2F	2B-	2d
2BB-	2B-	2d	2f
=44	=44	=44	=44
2FF	2A	2c	2f
2C	2G	2c	2e
=45	=45	=45	=45
1D	1F	1A	1d
=46	=46	=46	=46
1r	1r	1r	1r
=47	=47	=47	=47
1F	1A	1c	1f
=48	=48	=48	=48
1F	1c	1A	1f
=49	=49	=49	=49
2BB-	2B-	2d	2f
2F	2A	2c	2f
=50	=50	=50	=50
2C	2G	2c	2e
2D	2F	2A	[2f
=51	=51	=51	=51
1C	1G	1c	2f]
.	.	.	2e
=52	=52	=52	=52
1FF;	1F;	1c;	1f;
==	==	==	==
*-	*-	*-	*-
!!!software: music21 v.9.7.1
!!!software: music21 v.9.1.0
!!!RDF**kern: > = above
!!!RDF**kern: < = below
